sources/design/Outline/7.svg

<svg:svg xmlns:cc="http://creativecommons.org/ns#" xmlns:dc="http://purl.org/dc/elements/1.1/" xmlns:inkscape="http://www.inkscape.org/namespaces/inkscape" xmlns:rdf="http://www.w3.org/1999/02/22-rdf-syntax-ns#" xmlns:sodipodi="http://sodipodi.sourceforge.net/DTD/sodipodi-0.dtd" xmlns:svg="http://www.w3.org/2000/svg" xml:space="preserve" width="1000" height="1000" version="1.1" style="clip-rule:evenodd;fill-rule:evenodd;image-rendering:optimizeQuality;shape-rendering:geometricPrecision;text-rendering:geometricPrecision" viewBox="0 0 1000 1000" id="svg10" sodipodi:docname="7.svg" inkscape:version="1.1.1 (3bf5ae0d25, 2021-09-20)"><svg:metadata id="metadata14"><rdf:RDF><cc:Work rdf:about=""><dc:format>image/svg+xml</dc:format><dc:type rdf:resource="http://purl.org/dc/dcmitype/StillImage" /></cc:Work></rdf:RDF></svg:metadata><sodipodi:namedview pagecolor="#ffffff" bordercolor="#666666" borderopacity="1" objecttolerance="10" gridtolerance="10" guidetolerance="10" inkscape:pageopacity="0" inkscape:pageshadow="2" inkscape:window-width="1920" inkscape:window-height="1009" id="namedview12" showgrid="false" inkscape:zoom="0.84890885" inkscape:cx="303.33056" inkscape:cy="447.63345" inkscape:window-x="1920" inkscape:window-y="0" inkscape:window-maximized="1" inkscape:current-layer="g857" showguides="true" inkscape:guide-bbox="true" inkscape:document-rotation="0" inkscape:pagecheckerboard="0"><sodipodi:guide position="0,1000" orientation="0,1" id="guide16" inkscape:label="" inkscape:locked="true" inkscape:color="rgb(0,0,255)" /><sodipodi:guide position="1763.3122,2036.1693" orientation="1000,0" id="guide18" /><sodipodi:guide position="0,200" orientation="0,1" id="guide20" inkscape:label="base" inkscape:locked="true" inkscape:color="rgb(0,0,255)" /><inkscape:grid type="xygrid" id="grid24" originx="-473.37552" originy="-489.69235" /><sodipodi:guide position="0,0" orientation="0,1" id="guide34" inkscape:label="bottom" inkscape:locked="true" inkscape:color="rgb(0,0,255)" /><sodipodi:guide position="225.05109,1693.3186" orientation="0,1" id="guide44" inkscape:label="" inkscape:locked="false" inkscape:color="rgb(0,0,255)" /><sodipodi:guide position="0,900" orientation="0,1" id="guide46" inkscape:label="" inkscape:locked="true" inkscape:color="rgb(0,0,255)" /><sodipodi:guide position="402.29428,584.06789" orientation="-1,0" id="guide841" inkscape:label="width" inkscape:locked="false" inkscape:color="rgb(0,0,255)" /></sodipodi:namedview>
 <svg:defs id="defs4"><inkscape:path-effect effect="fillet_chamfer" id="path-effect2351" is_visible="true" lpeversion="1" satellites_param="F,0,0,1,0,16.209696,0,1 @ F,0,0,1,0,0,0,1 @ F,0,0,1,0,6.9822921,0,1 @ F,0,0,1,0,0,0,1 @ F,0,0,1,0,0,0,1 @ F,0,0,1,0,16.209696,0,1 @ F,0,0,1,0,16.209696,0,1 @ F,0,0,1,0,0,0,1 @ F,0,0,1,0,0,0,1 @ F,0,0,1,0,0,0,1 @ F,0,0,1,0,0,0,1 @ F,0,0,1,0,0,0,1 @ F,0,0,1,0,16.209696,0,1" unit="px" method="auto" mode="F" radius="0" chamfer_steps="1" flexible="false" use_knot_distance="true" apply_no_radius="true" apply_with_radius="true" only_selected="false" hide_knots="false" /><inkscape:path-effect effect="fillet_chamfer" id="path-effect856" is_visible="true" lpeversion="1" satellites_param="F,0,0,1,0,11.383679,0,1 @ F,0,0,1,0,0,0,1 @ F,0,0,1,0,8.5497523,0,1 @ F,0,0,1,0,4.7061549,0,1 @ F,0,0,1,0,0,0,1 @ F,0,0,1,0,0,0,1 @ F,0,1,1,0,14.236039,0,1 @ F,0,1,1,0,14.236039,0,1 @ F,0,0,1,0,0,0,1 @ F,0,0,1,0,0,0,1 @ F,0,0,1,0,0,0,1 @ F,0,0,1,0,0,0,1 @ F,0,0,1,0,0,0,1 @ F,0,0,1,0,30.024581,0,1" unit="px" method="auto" mode="F" radius="0" chamfer_steps="1" flexible="false" use_knot_distance="true" apply_no_radius="true" apply_with_radius="true" only_selected="true" hide_knots="false" /><inkscape:path-effect effect="fillet_chamfer" id="path-effect860" is_visible="true" lpeversion="1" satellites_param="F,0,0,1,0,36.764823,0,1 @ F,0,0,1,0,0,0,1 @ F,0,0,1,0,0,0,1 @ F,0,0,1,0,0,0,1 @ F,0,0,1,0,0,0,1 @ F,0,0,1,0,0,0,1 @ F,0,0,1,0,0,0,1 @ F,0,1,1,0,33.649491,0,1 @ F,0,1,1,0,33.649491,0,1 @ F,0,0,1,0,0,0,1 @ F,0,0,1,0,0,0,1 @ F,0,0,1,0,0,0,1 @ F,0,0,1,0,0,0,1 @ F,0,0,1,0,0,0,1 @ F,0,0,1,0,0,0,1 @ F,0,0,1,0,0,0,1 @ F,0,0,1,0,36.764823,0,1" unit="px" method="auto" mode="F" radius="0" chamfer_steps="1" flexible="false" use_knot_distance="true" apply_no_radius="true" apply_with_radius="true" only_selected="true" hide_knots="false" /><inkscape:path-effect effect="fillet_chamfer" id="path-effect854" is_visible="true" lpeversion="1" satellites_param="F,0,1,1,0,11.216654,0,1 @ F,0,1,1,0,11.216654,0,1 @ F,0,1,1,0,11.216654,0,1 @ F,0,1,1,0,11.216654,0,1" unit="px" method="auto" mode="F" radius="0" chamfer_steps="1" flexible="false" use_knot_distance="true" apply_no_radius="true" apply_with_radius="true" only_selected="true" hide_knots="false" /><inkscape:path-effect effect="spiro" id="path-effect852" is_visible="true" lpeversion="1" /><inkscape:path-effect effect="fillet_chamfer" id="path-effect849" is_visible="true" lpeversion="1" satellites_param="F,0,0,1,0,24.155793,0,1 @ F,0,0,1,0,0,0,1 @ F,0,0,1,0,35.003178,0,1 @ F,0,0,1,0,0,0,1 @ F,0,0,1,0,0,0,1 @ F,0,0,1,0,27.624093,0,1 @ F,0,0,1,0,33.660247,0,1 @ F,0,0,1,0,0,0,1 @ F,0,0,1,0,0,0,1 @ F,0,0,1,0,0,0,1 @ F,0,0,1,0,35.301955,0,1" unit="px" method="auto" mode="F" radius="0" chamfer_steps="1" flexible="false" use_knot_distance="true" apply_no_radius="true" apply_with_radius="true" only_selected="true" hide_knots="false" /><inkscape:path-effect effect="spiro" id="path-effect850" is_visible="true" lpeversion="1" /><inkscape:path-effect effect="spiro" id="path-effect851" is_visible="true" lpeversion="1" />
  <svg:style type="text/css" id="style2">
   
    .fil0 {fill:#EF7F1A;fill-rule:nonzero}
   
  </svg:style>
 <inkscape:path-effect effect="spiro" id="path-effect1214" is_visible="true" lpeversion="1" /><inkscape:path-effect effect="spiro" id="path-effect1195" is_visible="true" lpeversion="1" /><inkscape:path-effect effect="spiro" id="path-effect992" is_visible="true" lpeversion="1" /><inkscape:path-effect effect="spiro" id="path-effect1060" is_visible="true" lpeversion="1" /><inkscape:path-effect effect="spiro" id="path-effect1047" is_visible="true" lpeversion="1" /><inkscape:path-effect effect="spiro" id="path-effect1085" is_visible="true" lpeversion="1" /><inkscape:path-effect effect="spiro" id="path-effect1286" is_visible="true" lpeversion="1" /><inkscape:path-effect effect="spiro" id="path-effect1305" is_visible="true" lpeversion="1" /></svg:defs>
 
<svg:g id="g858"><svg:g id="g857"><svg:g id="path848"><svg:path style="color:#000000;clip-rule:nonzero;fill:#1a5fb4;fill-rule:nonzero;stroke-linecap:round;stroke-linejoin:round;-inkscape-stroke:none;paint-order:fill stroke markers;shape-rendering:auto" d="M 298.86328,62.953125 C 239.45471,62.13341 179.98466,65.919361 121.15234,74.300781 C 87.687632,79.06826 54.436166,85.315028 21.523437,93.017578 C -3.1654707,98.795512 -18.670874999999995,127.15644 -10.664062999999999,150.96289000000002 L 24.458984,255.39453000000003 C 27.865486,265.52299000000005 37.407147,280.13703000000004 55.263672,282.44141 C 73.120197,284.74578 85.053186,274.03086 91.246094,265.70898 C 110.61819,239.67723999999998 138.08297,219.191 168.50977,208.25781 C 194.25541,199.00669 222.80586,196.84531 250.31835999999998,201.12695 C 247.29962999999998,215.84167 244.33762,230.56797 241.29297,245.27733999999998 C 225.90148,319.63707999999997 210.15622,394.03383999999994 194.85937,468.63280999999995 C 173.71268,571.76006 153.46628,675.0724299999999 134.12109,778.5527299999999 C 131.88221000000001,790.5288599999999 134.83489,805.2342999999998 144.46875,815.3691399999999 C 154.10261,825.50398 168.62763,829.1954 180.69727,827.5742199999999 L 297.46680000000003,811.8906199999999 C 322.33697000000006,808.55009 340.47621000000004,782.2665199999999 335.43359000000004,758.0507799999999 C 316.38338000000005,666.56756 315.00025000000005,571.2982399999999 331.45312,479.3242199999999 C 344.80393000000004,404.6912099999999 370.08525000000003,330.9537199999999 394.09961,255.2636699999999 C 408.87343,208.6985599999999 422.93519,161.9060399999999 436.27539,114.9101599999999 C 441.70473000000004,95.7832519999999 425.42297,71.53654299999991 405.58203000000003,69.4042969999999 C 370.13118000000003,65.5944979999999 334.50843000000003,63.4449539999999 298.86328000000003,62.9531249999999 L 298.86328,62.953125 M 266.28905999999995,123.00195 C 265.00969999999995,129.33846 263.68845999999996,135.66642 262.4042999999999,142.00195 C 224.45258999999993,135.59099 184.93664999999993,138.59922 148.21874999999991,151.79297 C 118.74623999999991,162.38325 91.9229699999999,179.21287999999998 69.33007799999992,200.59375 L 51.572266,147.79687 C 77.40849299999999,142.16946000000002 103.43835,137.42845 129.61523,133.69922000000003 C 174.88015,127.25065000000002 220.56243999999998,123.70307000000003 266.28906,123.00195000000002 L 266.28905999999995,123.00195 M 327.65819999999997,123.81640999999999 C 341.92346999999995,124.40146999999999 356.17432999999994,125.27542999999999 370.4043,126.42187999999999 C 365.6114,142.9195 360.80467,159.41307999999998 355.83203,175.85742 L 327.65819999999997,123.81640999999999 M 307.53711,220.80858999999998 C 311.68358,223.15811 315.75397,225.62964999999997 319.64648,228.3457 A 30.003,30.003 0.0 0,0 338.10352,233.25391 C 337.69701,234.53897999999998 337.31776,235.83246 336.91016,237.11719 C 313.19422000000003,311.86663 286.83218,388.02736 272.39062,468.75781 C 255.51285000000001,563.10705 256.18357000000003,660.3502100000001 273.80664,754.53125 L 197.85742000000002,764.73242 C 215.72187000000002,669.90871 234.25395000000003,575.21059 253.63672000000003,480.68555000000003 C 268.88288,406.33372 284.62124,331.97363000000007 300.04883,257.43945 C 302.57492,245.23534 305.02882,233.01638000000003 307.53711,220.80859000000004 L 307.53711,220.80858999999998" id="path25288" /></svg:g><svg:g id="path850"><svg:path style="color:#000000;clip-rule:nonzero;fill:#1a5fb4;fill-rule:nonzero;stroke-linecap:round;stroke-linejoin:round;-inkscape-stroke:none;paint-order:fill stroke markers;shape-rendering:auto" d="M 366.14062,356.2168 L 150.59961,361.96875 C 127.81325000000001,362.57688 109.44262,382.83305 111.05664000000002,405.57031 L 116.44727000000002,481.51953000000003 C 118.07665000000001,504.47324000000003 139.67483000000001,521.9372000000001 162.46094000000002,518.72461 L 389.98242000000005,486.64648 C 413.23031000000003,483.36879 429.05852000000004,459.39542 422.94141,436.72852 L 410.03906,388.91992 C 404.75573,369.34259 386.41112,355.67581 366.14062,356.2168 M 355.34180000000003,416.52538999999996 L 359.08984000000004,430.40819999999997 L 174.81445000000005,456.39061999999996 L 172.33203000000006,421.41211 L 355.34180000000003,416.52538999999996" id="path25294" /></svg:g></svg:g></svg:g></svg:svg>

<svg:svg xmlns:cc="http://creativecommons.org/ns#" xmlns:dc="http://purl.org/dc/elements/1.1/" xmlns:inkscape="http://www.inkscape.org/namespaces/inkscape" xmlns:rdf="http://www.w3.org/1999/02/22-rdf-syntax-ns#" xmlns:sodipodi="http://sodipodi.sourceforge.net/DTD/sodipodi-0.dtd" xmlns:svg="http://www.w3.org/2000/svg" xml:space="preserve" width="1000" height="1000" version="1.1" style="clip-rule:evenodd;fill-rule:evenodd;image-rendering:optimizeQuality;shape-rendering:geometricPrecision;text-rendering:geometricPrecision" viewBox="0 0 1000 1000" id="svg10" sodipodi:docname="7.svg" inkscape:version="1.1.1 (3bf5ae0d25, 2021-09-20)"><svg:metadata id="metadata14"><rdf:RDF><cc:Work rdf:about=""><dc:format>image/svg+xml</dc:format><dc:type rdf:resource="http://purl.org/dc/dcmitype/StillImage" /></cc:Work></rdf:RDF></svg:metadata><sodipodi:namedview pagecolor="#ffffff" bordercolor="#666666" borderopacity="1" objecttolerance="10" gridtolerance="10" guidetolerance="10" inkscape:pageopacity="0" inkscape:pageshadow="2" inkscape:window-width="1920" inkscape:window-height="1009" id="namedview12" showgrid="false" inkscape:zoom="0.84890885" inkscape:cx="303.33056" inkscape:cy="447.63345" inkscape:window-x="1920" inkscape:window-y="0" inkscape:window-maximized="1" inkscape:current-layer="g857" showguides="true" inkscape:guide-bbox="true" inkscape:document-rotation="0" inkscape:pagecheckerboard="0"><sodipodi:guide position="0,1000" orientation="0,1" id="guide16" inkscape:label="" inkscape:locked="true" inkscape:color="rgb(0,0,255)" /><sodipodi:guide position="1763.3122,2036.1693" orientation="1000,0" id="guide18" /><sodipodi:guide position="0,200" orientation="0,1" id="guide20" inkscape:label="base" inkscape:locked="true" inkscape:color="rgb(0,0,255)" /><inkscape:grid type="xygrid" id="grid24" originx="-473.37552" originy="-489.69235" /><sodipodi:guide position="0,0" orientation="0,1" id="guide34" inkscape:label="bottom" inkscape:locked="true" inkscape:color="rgb(0,0,255)" /><sodipodi:guide position="225.05109,1693.3186" orientation="0,1" id="guide44" inkscape:label="" inkscape:locked="false" inkscape:color="rgb(0,0,255)" /><sodipodi:guide position="0,900" orientation="0,1" id="guide46" inkscape:label="" inkscape:locked="true" inkscape:color="rgb(0,0,255)" /><sodipodi:guide position="402.29428,584.06789" orientation="-1,0" id="guide841" inkscape:label="width" inkscape:locked="false" inkscape:color="rgb(0,0,255)" /></sodipodi:namedview>
 <svg:defs id="defs4"><inkscape:path-effect effect="fillet_chamfer" id="path-effect2351" is_visible="true" lpeversion="1" satellites_param="F,0,0,1,0,16.209696,0,1 @ F,0,0,1,0,0,0,1 @ F,0,0,1,0,6.9822921,0,1 @ F,0,0,1,0,0,0,1 @ F,0,0,1,0,0,0,1 @ F,0,0,1,0,16.209696,0,1 @ F,0,0,1,0,16.209696,0,1 @ F,0,0,1,0,0,0,1 @ F,0,0,1,0,0,0,1 @ F,0,0,1,0,0,0,1 @ F,0,0,1,0,0,0,1 @ F,0,0,1,0,0,0,1 @ F,0,0,1,0,16.209696,0,1" unit="px" method="auto" mode="F" radius="0" chamfer_steps="1" flexible="false" use_knot_distance="true" apply_no_radius="true" apply_with_radius="true" only_selected="false" hide_knots="false" /><inkscape:path-effect effect="fillet_chamfer" id="path-effect856" is_visible="true" lpeversion="1" satellites_param="F,0,0,1,0,11.383679,0,1 @ F,0,0,1,0,0,0,1 @ F,0,0,1,0,8.5497523,0,1 @ F,0,0,1,0,4.7061549,0,1 @ F,0,0,1,0,0,0,1 @ F,0,0,1,0,0,0,1 @ F,0,1,1,0,14.236039,0,1 @ F,0,1,1,0,14.236039,0,1 @ F,0,0,1,0,0,0,1 @ F,0,0,1,0,0,0,1 @ F,0,0,1,0,0,0,1 @ F,0,0,1,0,0,0,1 @ F,0,0,1,0,0,0,1 @ F,0,0,1,0,30.024581,0,1" unit="px" method="auto" mode="F" radius="0" chamfer_steps="1" flexible="false" use_knot_distance="true" apply_no_radius="true" apply_with_radius="true" only_selected="true" hide_knots="false" /><inkscape:path-effect effect="fillet_chamfer" id="path-effect860" is_visible="true" lpeversion="1" satellites_param="F,0,0,1,0,36.764823,0,1 @ F,0,0,1,0,0,0,1 @ F,0,0,1,0,0,0,1 @ F,0,0,1,0,0,0,1 @ F,0,0,1,0,0,0,1 @ F,0,0,1,0,0,0,1 @ F,0,0,1,0,0,0,1 @ F,0,1,1,0,33.649491,0,1 @ F,0,1,1,0,33.649491,0,1 @ F,0,0,1,0,0,0,1 @ F,0,0,1,0,0,0,1 @ F,0,0,1,0,0,0,1 @ F,0,0,1,0,0,0,1 @ F,0,0,1,0,0,0,1 @ F,0,0,1,0,0,0,1 @ F,0,0,1,0,0,0,1 @ F,0,0,1,0,36.764823,0,1" unit="px" method="auto" mode="F" radius="0" chamfer_steps="1" flexible="false" use_knot_distance="true" apply_no_radius="true" apply_with_radius="true" only_selected="true" hide_knots="false" /><inkscape:path-effect effect="fillet_chamfer" id="path-effect854" is_visible="true" lpeversion="1" satellites_param="F,0,1,1,0,11.216654,0,1 @ F,0,1,1,0,11.216654,0,1 @ F,0,1,1,0,11.216654,0,1 @ F,0,1,1,0,11.216654,0,1" unit="px" method="auto" mode="F" radius="0" chamfer_steps="1" flexible="false" use_knot_distance="true" apply_no_radius="true" apply_with_radius="true" only_selected="true" hide_knots="false" /><inkscape:path-effect effect="spiro" id="path-effect852" is_visible="true" lpeversion="1" /><inkscape:path-effect effect="fillet_chamfer" id="path-effect849" is_visible="true" lpeversion="1" satellites_param="F,0,0,1,0,24.155793,0,1 @ F,0,0,1,0,0,0,1 @ F,0,0,1,0,35.003178,0,1 @ F,0,0,1,0,0,0,1 @ F,0,0,1,0,0,0,1 @ F,0,0,1,0,27.624093,0,1 @ F,0,0,1,0,33.660247,0,1 @ F,0,0,1,0,0,0,1 @ F,0,0,1,0,0,0,1 @ F,0,0,1,0,0,0,1 @ F,0,0,1,0,35.301955,0,1" unit="px" method="auto" mode="F" radius="0" chamfer_steps="1" flexible="false" use_knot_distance="true" apply_no_radius="true" apply_with_radius="true" only_selected="true" hide_knots="false" /><inkscape:path-effect effect="spiro" id="path-effect850" is_visible="true" lpeversion="1" /><inkscape:path-effect effect="spiro" id="path-effect851" is_visible="true" lpeversion="1" />
  <svg:style type="text/css" id="style2">
   
    .fil0 {fill:#EF7F1A;fill-rule:nonzero}
   
  </svg:style>
 <inkscape:path-effect effect="spiro" id="path-effect1214" is_visible="true" lpeversion="1" /><inkscape:path-effect effect="spiro" id="path-effect1195" is_visible="true" lpeversion="1" /><inkscape:path-effect effect="spiro" id="path-effect992" is_visible="true" lpeversion="1" /><inkscape:path-effect effect="spiro" id="path-effect1060" is_visible="true" lpeversion="1" /><inkscape:path-effect effect="spiro" id="path-effect1047" is_visible="true" lpeversion="1" /><inkscape:path-effect effect="spiro" id="path-effect1085" is_visible="true" lpeversion="1" /><inkscape:path-effect effect="spiro" id="path-effect1286" is_visible="true" lpeversion="1" /><inkscape:path-effect effect="spiro" id="path-effect1305" is_visible="true" lpeversion="1" /></svg:defs>
 
<svg:g id="g858"><svg:g id="g857"><svg:g id="path848"><svg:path style="color:#000000;clip-rule:nonzero;fill:#1a5fb4;fill-rule:nonzero;stroke-linecap:round;stroke-linejoin:round;-inkscape-stroke:none;shape-rendering:auto" d="M 298.86328,62.953125 C 239.45471,62.13341 179.98466,65.919361 121.15234,74.300781 87.687632,79.06826 54.436166,85.315028 21.523437,93.017578 c -24.6889077,5.777934 -40.194312,34.138862 -32.1875,57.945312 l 35.123047,104.43164 c 3.406502,10.12846 12.948163,24.7425 30.804688,27.04688 17.856525,2.30437 29.789514,-8.41055 35.982422,-16.73243 19.372096,-26.03174 46.836876,-46.51798 77.263676,-57.45117 25.74564,-9.25112 54.29609,-11.4125 81.80859,-7.13086 -3.01873,14.71472 -5.98074,29.44102 -9.02539,44.15039 -15.39149,74.35974 -31.13675,148.7565 -46.4336,223.35547 -21.14669,103.12725 -41.39309,206.43962 -60.73828,309.91992 -2.23888,11.97613 0.7138,26.68157 10.34766,36.81641 9.63386,10.13484 24.15888,13.82626 36.22852,12.20508 l 116.76953,-15.6836 c 24.87017,-3.34053 43.00941,-29.6241 37.96679,-53.83984 -19.05021,-91.48322 -20.43334,-186.75254 -3.98047,-278.72656 13.35081,-74.63301 38.63213,-148.3705 62.64649,-224.06055 14.77382,-46.56511 28.83558,-93.35763 42.17578,-140.35351 5.42934,-19.126908 -10.85242,-43.373617 -30.69336,-45.505863 -35.45085,-3.809799 -71.0736,-5.959343 -106.71875,-6.451172 z m -32.57422,60.048825 c -1.27936,6.33651 -2.6006,12.66447 -3.88476,19 -37.95171,-6.41096 -77.46765,-3.40273 -114.18555,9.79102 -29.47251,10.59028 -56.29578,27.41991 -78.888672,48.80078 L 51.572266,147.79687 c 25.836227,-5.62741 51.866084,-10.36842 78.042964,-14.09765 45.26492,-6.44857 90.94721,-9.99615 136.67383,-10.69727 z m 61.36914,0.81446 c 14.26527,0.58506 28.51613,1.45902 42.7461,2.60547 -4.7929,16.49762 -9.59963,32.9912 -14.57227,49.43554 z m -20.12109,96.99218 c 4.14647,2.34952 8.21686,4.82106 12.10937,7.53711 a 30.003,30.003 0 0 0 18.45704,4.90821 c -0.40651,1.28507 -0.78576,2.57855 -1.19336,3.86328 -23.71594,74.74944 -50.07798,150.91017 -64.51954,231.64062 -16.87777,94.34924 -16.20705,191.5924 1.41602,285.77344 l -75.94922,10.20117 c 17.86445,-94.82371 36.39653,-189.52183 55.7793,-284.04687 15.24616,-74.35183 30.98452,-148.71192 46.41211,-223.2461 2.52609,-12.20411 4.97999,-24.42307 7.48828,-36.63086 z" id="path25206" /></svg:g><svg:g id="path850"><svg:path style="color:#000000;clip-rule:nonzero;fill:#1a5fb4;fill-rule:nonzero;stroke-linecap:round;stroke-linejoin:round;-inkscape-stroke:none;shape-rendering:auto" d="m 366.14062,356.2168 -215.54101,5.75195 c -22.78636,0.60813 -41.15699,20.8643 -39.54297,43.60156 l 5.39063,75.94922 c 1.62938,22.95371 23.22756,40.41767 46.01367,37.20508 l 227.52148,-32.07813 c 23.24789,-3.27769 39.0761,-27.25106 32.95899,-49.91796 l -12.90235,-47.8086 c -5.28333,-19.57733 -23.62794,-33.24411 -43.89844,-32.70312 z m -10.79882,60.30859 3.74804,13.88281 -184.27539,25.98242 -2.48242,-34.97851 z" id="path25212" /></svg:g></svg:g></svg:g></svg:svg>
